flaticon/seo-and-analytics/worldwide-8.svg

<svg xmlns="http://www.w3.org/2000/svg" width="32" height="32" viewBox="0 0 24 24">
    <path d="M 23.992188 17.480469 C 23.910156 16.628906 23.539062 15.898438 22.992188 15.382812 C 23.339844 14.222656 23.546875 13.027344 23.546875 11.796875 C 23.546875 5.441406 18.492188 0.253906 12.191406 0.03125 L 12.179688 0.0234375 L 11.9375 0.0234375 C 11.894531 0.0234375 11.8125 0.0234375 11.773438 0.0234375 C 11.734375 0.0234375 11.652344 0.0234375 11.609375 0.0234375 L 11.367188 0.0234375 L 11.355469 0.03125 C 8.203125 0.140625 5.363281 1.496094 3.3125 3.613281 C 3.257812 3.648438 3.207031 3.695312 3.167969 3.757812 C 3.160156 3.765625 3.15625 3.777344 3.152344 3.785156 C 1.195312 5.886719 0 8.703125 0 11.796875 C 0 14.765625 1.101562 17.480469 2.921875 19.550781 C 2.929688 19.582031 2.945312 19.609375 2.964844 19.632812 C 3 19.691406 3.050781 19.730469 3.101562 19.753906 C 5.167969 22.003906 8.09375 23.449219 11.355469 23.5625 L 11.367188 23.570312 L 11.609375 23.570312 C 11.652344 23.570312 11.734375 23.570312 11.773438 23.570312 C 13.511719 23.570312 15.210938 23.203125 16.773438 22.46875 L 18.390625 23.855469 C 18.472656 23.9375 18.59375 23.976562 18.714844 23.976562 C 18.835938 23.976562 18.960938 23.9375 19.039062 23.855469 L 22.371094 20.929688 C 23.140625 20.324219 23.628906 19.511719 23.914062 18.578125 C 24.035156 17.96875 23.992188 17.601562 23.992188 17.480469 Z M 7.746094 17.652344 C 8.914062 17.304688 10.128906 17.117188 11.367188 17.082031 L 11.367188 22.515625 C 9.800781 21.152344 8.574219 19.492188 7.746094 17.652344 Z M 11.367188 16.269531 C 10.023438 16.304688 8.707031 16.519531 7.4375 16.90625 C 6.867188 15.421875 6.546875 13.835938 6.5 12.203125 L 11.367188 12.203125 Z M 0.820312 12.203125 L 5.6875 12.203125 C 5.734375 13.921875 6.070312 15.597656 6.667969 17.164062 C 5.519531 17.582031 4.417969 18.144531 3.375 18.839844 C 1.859375 17.03125 0.914062 14.722656 0.820312 12.203125 Z M 3.582031 4.519531 C 4.597656 5.175781 5.675781 5.703125 6.800781 6.09375 C 6.121094 7.757812 5.738281 9.546875 5.6875 11.390625 L 0.820312 11.390625 C 0.917969 8.757812 1.941406 6.363281 3.582031 4.519531 Z M 11.367188 6.109375 C 10.195312 6.078125 9.035156 5.902344 7.910156 5.589844 C 8.734375 3.890625 9.902344 2.355469 11.367188 1.078125 Z M 13.234375 0.933594 C 15.597656 1.25 17.722656 2.316406 19.359375 3.882812 C 18.429688 4.480469 17.4375 4.960938 16.40625 5.324219 C 15.628906 3.695312 14.5625 2.207031 13.234375 0.933594 Z M 15.625 5.570312 C 14.507812 5.886719 13.347656 6.070312 12.179688 6.105469 L 12.179688 1.078125 C 13.640625 2.351562 14.804688 3.878906 15.625 5.570312 Z M 7.132812 5.347656 C 6.09375 4.992188 5.09375 4.511719 4.160156 3.917969 C 5.800781 2.328125 7.9375 1.25 10.3125 0.933594 C 8.976562 2.214844 7.90625 3.710938 7.132812 5.347656 Z M 6.5 11.390625 C 6.550781 9.628906 6.917969 7.921875 7.574219 6.335938 C 8.800781 6.691406 10.070312 6.886719 11.367188 6.917969 L 11.367188 11.390625 Z M 12.179688 6.917969 C 13.476562 6.886719 14.75 6.6875 15.96875 6.335938 C 16.628906 7.917969 16.996094 9.628906 17.046875 11.390625 L 12.179688 11.390625 Z M 17.859375 11.390625 C 17.808594 9.546875 17.425781 7.753906 16.742188 6.085938 C 17.871094 5.691406 18.945312 5.15625 19.941406 4.488281 C 21.601562 6.335938 22.640625 8.75 22.726562 11.390625 Z M 3.921875 19.441406 C 4.886719 18.800781 5.910156 18.285156 6.972656 17.902344 C 7.757812 19.671875 8.886719 21.289062 10.3125 22.660156 C 7.820312 22.328125 5.59375 21.15625 3.921875 19.441406 Z M 12.179688 22.75 L 12.179688 12.203125 L 22.726562 12.203125 C 22.695312 13.109375 22.566406 14.011719 22.289062 14.882812 C 22.210938 14.847656 22.132812 14.816406 22.050781 14.789062 C 21.765625 14.675781 21.460938 14.613281 21.140625 14.601562 C 21.101562 14.597656 21.066406 14.597656 21.03125 14.597656 C 20.054688 14.597656 19.242188 15.167969 18.714844 15.898438 C 18.1875 15.167969 17.375 14.597656 16.402344 14.597656 C 16.0625 14.597656 15.742188 14.65625 15.4375 14.765625 C 15.394531 14.78125 15.351562 14.796875 15.3125 14.816406 C 15.101562 14.902344 14.902344 15.015625 14.714844 15.148438 C 14.386719 15.390625 14.101562 15.707031 13.886719 16.074219 C 13.816406 16.199219 13.75 16.328125 13.695312 16.460938 C 13.675781 16.503906 13.65625 16.550781 13.640625 16.597656 C 13.539062 16.871094 13.46875 17.167969 13.4375 17.480469 C 13.425781 17.519531 13.414062 17.582031 13.40625 17.667969 C 13.390625 17.855469 13.40625 18.15625 13.519531 18.578125 C 13.722656 19.46875 14.25 20.28125 14.980469 20.929688 L 16.074219 21.867188 C 14.855469 22.417969 13.535156 22.703125 12.179688 22.75 Z M 23.101562 18.453125 C 22.9375 19.1875 22.492188 19.835938 21.882812 20.363281 L 18.757812 23.082031 L 15.550781 20.324219 C 14.941406 19.792969 14.492188 19.144531 14.332031 18.414062 C 14.210938 17.925781 14.25 17.644531 14.25 17.644531 C 14.371094 16.585938 15.144531 15.492188 16.402344 15.492188 C 16.925781 15.492188 17.390625 15.742188 17.753906 16.097656 C 17.992188 16.339844 18.183594 16.625 18.308594 16.914062 L 18.675781 17.765625 L 18.933594 17.132812 C 18.992188 17.089844 19.042969 17.03125 19.082031 16.953125 C 19.40625 16.222656 20.136719 15.492188 21.03125 15.492188 C 22.289062 15.492188 23.058594 16.585938 23.179688 17.683594 C 23.179688 17.683594 23.222656 17.96875 23.101562 18.453125 Z M 23.101562 18.453125"/>
</svg>

<svg xmlns="http://www.w3.org/2000/svg" width="32" height="32" viewBox="0 0 24 24">
    <path d="M23.992 17.48c-.082-.851-.453-1.582-1-2.097.348-1.16.555-2.356.555-3.586C23.547 5.44 18.492.254 12.19.03L12.18.023H11.367l-.012.008a11.747 11.747 0 0 0-8.043 3.582.464.464 0 0 0-.144.145c-.008.008-.012.02-.016.027A11.717 11.717 0 0 0 0 11.797c0 2.969 1.102 5.683 2.922 7.754a.207.207 0 0 0 .043.082.31.31 0 0 0 .137.12 11.74 11.74 0 0 0 8.253 3.81l.012.007h.406c1.739 0 3.438-.367 5-1.101l1.618 1.386a.458.458 0 0 0 .324.122c.12 0 .246-.04.324-.122l3.332-2.925c.77-.606 1.258-1.418 1.543-2.352.121-.61.078-.976.078-1.098zm-16.246.172a14.073 14.073 0 0 1 3.621-.57v5.434a14.14 14.14 0 0 1-3.62-4.864zm3.621-1.382c-1.344.035-2.66.25-3.93.636-.57-1.484-.89-3.07-.937-4.703h4.867zM.82 12.203h4.867c.047 1.719.383 3.395.981 4.961a15.48 15.48 0 0 0-3.293 1.676A10.948 10.948 0 0 1 .82 12.203zM3.582 4.52a14.982 14.982 0 0 0 3.219 1.574 15.09 15.09 0 0 0-1.114 5.297H.82A10.912 10.912 0 0 1 3.582 4.52zm7.785 1.59a14.342 14.342 0 0 1-3.457-.52 14.218 14.218 0 0 1 3.457-4.512zM13.234.933a10.956 10.956 0 0 1 6.125 2.949 14.154 14.154 0 0 1-2.953 1.441 15.061 15.061 0 0 0-3.172-4.39zm2.391 4.636c-1.117.317-2.277.5-3.445.535V1.078a14.15 14.15 0 0 1 3.445 4.492zm-8.492-.222a13.974 13.974 0 0 1-2.973-1.43A10.903 10.903 0 0 1 10.312.934a14.977 14.977 0 0 0-3.18 4.414zM6.5 11.39c.05-1.762.418-3.47 1.074-5.055 1.227.355 2.496.55 3.793.582v4.473zm5.68-4.473c1.297-.031 2.57-.23 3.789-.582a14.175 14.175 0 0 1 1.078 5.055H12.18zm5.68 4.473a15.068 15.068 0 0 0-1.118-5.305 14.08 14.08 0 0 0 3.2-1.598 10.84 10.84 0 0 1 2.785 6.903zM3.921 19.44a14.247 14.247 0 0 1 3.05-1.539 15.094 15.094 0 0 0 3.34 4.758 10.94 10.94 0 0 1-6.39-3.219zm8.258 3.309V12.203h10.547a9.934 9.934 0 0 1-.438 2.68 2.514 2.514 0 0 0-.238-.094 2.72 2.72 0 0 0-.91-.187c-.04-.004-.075-.004-.11-.004-.976 0-1.789.57-2.316 1.3-.527-.73-1.34-1.3-2.313-1.3-.34 0-.66.058-.965.168-.042.015-.085.03-.124.05-.211.086-.41.2-.598.332a3.097 3.097 0 0 0-1.02 1.313 3.553 3.553 0 0 0-.258 1.02 1.01 1.01 0 0 0-.03.187c-.016.187 0 .488.113.91.203.89.73 1.703 1.46 2.352l1.094.937c-1.219.551-2.539.836-3.894.883zm10.922-4.297c-.165.735-.61 1.383-1.22 1.91l-3.124 2.719-3.207-2.758c-.61-.531-1.059-1.18-1.219-1.91-.121-.488-.082-.77-.082-.77.121-1.058.895-2.152 2.152-2.152.524 0 .989.25 1.352.606.238.242.43.527.555.816l.367.852.258-.633a.49.49 0 0 0 .148-.18c.324-.73 1.055-1.46 1.95-1.46 1.257 0 2.027 1.093 2.148 2.19 0 0 .043.286-.078.77zm0 0"/>
</svg>
